packages/components/icons/assets/HomeOutline.svg

<svg viewBox="0 0 24 24" xmlns="http://www.w3.org/2000/svg" data-title="HomeOutline" fill="currentColor" stroke="none">
  <path fill-rule="evenodd" clip-rule="evenodd" d="M21.7126 11.3106 12.683 2.28744C12.2999 1.90419 11.6918 1.90419 11.3086 2.28744L2.28738 11.3106C1.90421 11.6938 1.90421 12.302 2.28738 12.6853 2.67055 13.0685 3.27863 13.0685 3.66181 12.6853L12 4.35368 20.3382 12.6936C20.7214 13.0769 21.3294 13.0769 21.7126 12.6936 22.0958 12.3104 22.0958 11.7021 21.7126 11.3189V11.3106ZM18.2474 13.1102C17.7143 13.1102 17.2728 13.5434 17.2728 14.085V20.0587H6.7272V14.085C6.7272 13.5518 6.29404 13.1102 5.7526 13.1102 5.21116 13.1102 4.77801 13.5434 4.77801 14.085V21.0252C4.77801 21.5584 5.21116 22 5.7526 22H18.2474C18.7805 22 19.222 21.5668 19.222 21.0252V14.085C19.222 13.5518 18.7888 13.1102 18.2474 13.1102Z"/>
</svg>

<svg viewBox="0 0 24 24" xmlns="http://www.w3.org/2000/svg" data-title="HomeOutline" fill="currentColor" stroke="none">
  <path fill-rule="evenodd" d="m21.71,11.31L12.68,2.29c-.38-.38-.99-.38-1.37,0L2.29,11.31c-.38.38-.38.99,0,1.37.38.38.99.38,1.37,0L12,4.35l8.34,8.34c.38.38.99.38,1.37,0,.38-.38.38-.99,0-1.37h0Zm-3.47,1.8c-.53,0-.97.43-.97.97v5.97H6.73v-5.97c0-.53-.43-.97-.97-.97s-.97.43-.97.97v6.94c0,.53.43.97.97.97h12.49c.53,0,.97-.43.97-.97v-6.94c0-.53-.43-.97-.97-.97Z"/>
</svg>
